icons/pancreas_fill.svg

<svg width="48" height="48" viewBox="0 0 48 48" fill="none" xmlns="http://www.w3.org/2000/svg">
<path fill-rule="evenodd" clip-rule="evenodd" d="M21.7104 10.3228C21.5089 10.2106 21.344 10.1888 21.1403 10.2587C21.1007 10.2723 21.0645 10.287 21.0313 10.303L21.028 10.3058L21.0139 10.3137L20.9553 10.3468C20.9512 10.3491 20.9469 10.3515 20.9424 10.3541C20.8051 10.4483 20.7358 10.5824 20.6895 10.7904C20.6069 11.1613 20.6404 11.663 20.7331 12.2495C20.8362 12.9017 21.1832 13.8277 21.6768 14.4455C21.9183 14.7478 22.1414 14.9094 22.3188 14.9758C22.4619 15.0293 22.6318 15.0458 22.8866 14.9265C23.2433 14.7594 23.4948 14.3504 23.3912 13.4211C23.2902 12.5146 22.8659 11.555 22.4851 11.062C22.2105 10.7064 21.9487 10.4555 21.7104 10.3228ZM19.8143 8.45781C20 8.34152 20.2083 8.2415 20.441 8.16158C22.2551 7.53859 23.5564 8.86014 24.2022 9.69619C24.8367 10.5176 25.4135 11.8655 25.5591 13.1722C25.6573 14.0532 25.5676 15.1346 24.9701 15.9757C26.7004 15.9361 28.0991 16.1105 29.4354 16.2799L29.4824 16.2858C30.9354 16.47 32.3145 16.6448 34.083 16.5788C34.9 16.5483 35.5953 16.3853 36.3568 16.2069C36.5656 16.1579 36.7794 16.1078 37.0021 16.059C37.9964 15.8407 39.1224 15.666 40.3839 16.0374C40.8113 16.1632 41.1971 16.3901 41.4897 16.7404C41.7804 17.0885 41.9214 17.4893 41.974 17.8693C42.0728 18.5843 41.8735 19.3277 41.6535 19.914C41.1999 21.1223 40.4033 22.3079 40.1144 22.7153C39.1162 24.1225 37.943 24.9215 36.6752 25.3356C35.4433 25.7379 34.1793 25.7565 33.0407 25.7166C32.704 25.7048 32.3835 25.6886 32.0746 25.6729C31.282 25.6328 30.5658 25.5966 29.8488 25.6487C29.5396 25.6712 29.246 25.7099 28.9662 25.7702C29.0485 25.7922 29.1308 25.8159 29.213 25.8413C31.1198 26.4305 32.7941 27.8863 34.361 29.7947C34.5985 30.0374 34.7861 30.2979 34.9268 30.6029C35.0698 30.9129 35.1426 31.223 35.1953 31.5085C35.3447 32.3175 35.1141 33.1257 34.7827 33.7841C34.443 34.4591 33.9407 35.0932 33.3701 35.6044C32.8035 36.112 32.1156 36.5465 31.3796 36.7539C30.6329 36.9643 29.7583 36.9558 28.9823 36.4345C28.5698 36.1573 28.3216 35.7176 28.212 35.5081C28.1651 35.4184 28.1254 35.3344 28.0935 35.2627C27.5346 34.7016 27.1804 34.4278 26.8871 34.2939C26.6867 34.2024 26.4727 34.1568 26.137 34.201C26.0785 34.2579 26.0105 34.3233 25.9341 34.3961C25.6562 34.6607 25.264 35.0235 24.8056 35.4176C23.9109 36.1869 22.6823 37.1472 21.5316 37.6856C19.2096 38.7723 16.8561 39.256 14.6079 38.8665C12.3384 38.4733 10.2965 37.2106 8.59047 35.031C4.30939 29.5615 5.86629 21.7204 9.41164 16.7442C10.935 14.606 13.629 12.4997 15.8392 10.9715C16.9623 10.1949 17.9945 9.5448 18.7461 9.08869C19.1223 8.86042 19.429 8.6802 19.6428 8.55646C19.7091 8.51807 19.7665 8.4851 19.8143 8.45781ZM24.8414 32.3913L25.0644 32.1646L25.3725 32.0939C26.2213 31.899 26.9978 31.9166 27.7825 32.275C27.897 32.3273 28.0093 32.3859 28.12 32.4502C28.3069 32.0317 28.5864 31.6328 28.8761 31.2903C29.2825 30.8098 29.793 30.3417 30.3409 29.9648C30.5764 29.8028 30.8313 29.649 31.0991 29.5174C30.2303 28.7276 29.3974 28.2126 28.5775 27.9592C27.3303 27.5739 25.9384 27.7425 24.2097 28.8495L24.1984 28.8567L19.2481 31.8569L19.1149 31.8972L19.1103 31.8986L19.096 31.9028L19.0477 31.9168C19.0071 31.9284 18.9501 31.9443 18.88 31.9628C18.7405 31.9997 18.5456 32.048 18.3223 32.094C17.9063 32.1797 17.278 32.2825 16.7197 32.2302C16.0255 32.1652 15.3698 32.0256 14.7527 31.7187C14.1269 31.4075 13.6057 30.9568 13.1331 30.3603C12.1719 29.147 12.0636 28.0333 12.0416 26.7638C12.0207 25.5545 12.2778 24.574 12.7674 23.6761C13.2362 22.8162 13.9022 22.0668 14.6088 21.3082C16.0167 19.7966 18.2265 18.1173 19.9504 16.8947C20.0109 16.8475 20.0735 16.8035 20.1376 16.7624C20.2868 16.6573 20.4325 16.5554 20.5739 16.4573C20.351 16.2666 20.154 16.055 19.982 15.8396C19.2063 14.8686 18.731 13.5627 18.5789 12.6C18.5439 12.3783 18.5084 12.1249 18.4857 11.8535C18.043 12.1397 17.5643 12.4577 17.0677 12.8011C14.8736 14.3182 12.4619 16.2417 11.1797 18.0413C7.94721 22.5784 6.86361 29.2651 10.2989 33.654C11.7166 35.4653 13.3035 36.3946 14.975 36.6842C16.6679 36.9774 18.5676 36.6347 20.618 35.6752C21.4845 35.2697 22.5252 34.4765 23.3953 33.7284C23.8194 33.3638 24.1836 33.0269 24.4414 32.7814C24.5701 32.6589 24.6717 32.5597 24.7404 32.4919C24.7748 32.4581 24.8008 32.4321 24.8179 32.415L24.8366 32.3962L24.8414 32.3913ZM30.0787 34.3444C30.0951 34.3815 30.1154 34.425 30.1388 34.4695C30.1708 34.5307 30.2005 34.5788 30.224 34.6109C30.3334 34.6695 30.5063 34.7022 30.7959 34.6207C31.1315 34.5261 31.5344 34.2957 31.9261 33.9447C32.3138 33.5974 32.6374 33.1791 32.8398 32.777C33.0506 32.3583 33.0783 32.0647 33.0509 31.9163C33.011 31.7003 32.979 31.6026 32.9509 31.5417C32.9292 31.4947 32.8941 31.4346 32.7951 31.3368C32.7875 31.3294 32.7848 31.3269 32.7679 31.3229C32.742 31.3167 32.6766 31.3086 32.5584 31.3297C32.3086 31.3745 31.9598 31.5259 31.565 31.7974C31.1806 32.0618 30.8145 32.3978 30.5316 32.7322C30.231 33.0877 30.0996 33.3521 30.0701 33.4627C30.0463 33.5522 30.0337 33.7637 30.0509 34.0411C30.0582 34.1603 30.0693 34.2671 30.0787 34.3444Z" fill="black"/>
</svg>

<svg
  xmlns="http://www.w3.org/2000/svg"
  width="24"
  height="24"
  viewBox="0 0 24 24"
  fill="none"
  stroke="currentColor"
  stroke-width="2"
  stroke-linecap="round"
  stroke-linejoin="round"
>
  <path
    fill-rule="evenodd"
    d="M21.71 10.323c-.201-.112-.366-.134-.57-.064a1 1 0 0 0-.109.044l-.003.003-.014.008-.059.033-.013.007c-.137.094-.206.228-.253.436-.082.371-.049.873.044 1.46.103.652.45 1.578.944 2.195.241.303.464.464.642.53.143.054.313.07.568-.048.356-.168.608-.577.504-1.506-.1-.906-.525-1.866-.906-2.359-.274-.356-.536-.606-.775-.74m-1.896-1.865q.278-.175.627-.296c1.814-.623 3.115.698 3.761 1.534.635.822 1.211 2.17 1.357 3.476.098.881.009 1.963-.589 2.804 1.73-.04 3.13.134 4.465.304l.047.006c1.453.184 2.833.359 4.601.293.817-.03 1.512-.194 2.274-.372q.312-.076.645-.148c.994-.218 2.12-.393 3.382-.022.427.126.813.353 1.106.703.29.349.431.75.484 1.13.099.714-.1 1.458-.32 2.044-.454 1.208-1.25 2.394-1.54 2.801-.998 1.407-2.171 2.207-3.439 2.62-1.232.403-2.496.421-3.634.382a61 61 0 0 1-.966-.044c-.793-.04-1.51-.076-2.226-.024q-.464.031-.883.121.123.033.247.071c1.907.59 3.581 2.045 5.148 3.954.238.242.425.503.566.808.143.31.216.62.268.906.15.809-.08 1.617-.412 2.275a6.3 6.3 0 0 1-1.413 1.82c-.566.508-1.254.943-1.99 1.15-.747.21-1.622.202-2.398-.32-.412-.277-.66-.716-.77-.926a4 4 0 0 1-.119-.245c-.558-.561-.913-.835-1.206-.97-.2-.09-.414-.136-.75-.092l-.203.195c-.278.265-.67.627-1.128 1.022-.895.769-2.124 1.73-3.274 2.268-2.322 1.086-4.676 1.57-6.924 1.18-2.27-.393-4.312-1.655-6.018-3.835-4.28-5.47-2.724-13.31.822-18.287 1.523-2.138 4.217-4.244 6.427-5.772a59 59 0 0 1 3.975-2.514m5.027 23.933.223-.226.308-.071c.85-.195 1.626-.177 2.41.181q.172.078.338.175c.187-.418.466-.817.756-1.16.406-.48.917-.948 1.465-1.325.235-.162.49-.316.758-.448-.869-.79-1.702-1.304-2.521-1.558-1.248-.385-2.64-.216-4.368.89l-.012.008-4.95 3-.133.04-.005.002-.014.004-.048.014-.168.046c-.14.037-.334.085-.558.131-.416.086-1.044.188-1.602.136-.694-.065-1.35-.204-1.967-.511-.626-.312-1.147-.762-1.62-1.359-.961-1.213-1.07-2.327-1.091-3.596-.021-1.21.236-2.19.725-3.088.47-.86 1.135-1.61 1.842-2.368 1.408-1.511 3.618-3.19 5.341-4.413q.09-.07.188-.133.223-.158.436-.305a4.5 4.5 0 0 1-.592-.617c-.776-.971-1.251-2.277-1.403-3.24-.035-.222-.07-.475-.093-.746-.443.286-.922.604-1.418.947-2.194 1.517-4.606 3.44-5.888 5.24-3.233 4.537-4.316 11.224-.881 15.613 1.418 1.811 3.005 2.74 4.676 3.03 1.693.293 3.593-.05 5.643-1.009.867-.405 1.907-1.198 2.777-1.947a28 28 0 0 0 1.345-1.236l.078-.077.019-.019zm5.238 1.953q.024.058.06.125.05.093.085.142c.11.059.282.091.572.01.335-.095.738-.325 1.13-.676.388-.348.711-.766.914-1.168.21-.419.238-.712.21-.86a1.6 1.6 0 0 0-.1-.375.7.7 0 0 0-.155-.205c-.008-.008-.01-.01-.027-.014a.5.5 0 0 0-.21.007c-.25.045-.598.196-.993.467-.384.265-.75.6-1.033.935-.301.356-.432.62-.462.73-.024.09-.036.302-.02.58.008.118.02.225.029.302"
    clip-rule="evenodd"
  />
</svg>
